X: 28
T: Wind That Shakes The Barley, The
Z: methylDragon
S: https://thesession.org/tunes/116#setting52634
R: reel
M: 4/4
L: 1/8
K: Dmaj
|:A2 AB AFED|B2 BA BcdB|A2 AB AFED|1 !accent!gfed BcdB:|2 !accent!gfed Bcde||
~f3 d ~g3 e|~f3 d Bcde|~f3 d g2fg|afed Bcde|
~f3 d ~g3 e|~f3 d Bcdc|defg afbf|afed BcdB||

%-------------------- TUNE SEPARATOR --------------------%

